16x16/apps/digitallyimported.svg

<svg height="16" width="16" xmlns="http://www.w3.org/2000/svg"><path d="m15 13.306v-10.612a.696.696 0 0 0 -.7-.694h-12.6c-.388 0-.7.31-.7.694v10.612c0 .384.312.694.7.694h12.6c.388 0 .7-.31.7-.694z" fill="#298fc5"/><path d="m3 5v1h5.357c.395 0 .642.213.642.546v2.408c0 .333-.247.946-.642.946h-4.35v-2.9h-1.007v4h5.928c.594 0 1.072-.483 1.072-1.083v-3.834c0-.6-.479-1.055-1.072-1.083h-4.935zm9 0v1h1v-1h-.01zm0 2v4h1v-4z" fill="#fff"/></svg>

<svg xmlns="http://www.w3.org/2000/svg" width="16" height="16" version="1"><path fill="#298fc5" d="M15 13.306V2.694A.696.696 0 0 0 14.3 2H1.7c-.388 0-.7.31-.7.694v10.612c0 .384.312.694.7.694h12.6c.388 0 .7-.31.7-.694z"/><g fill="#fff"><path d="M3 5v1h5.357c.395 0 .642.213.642.546v2.408c0 .333-.247.946-.642.946h-4.35V7H3v4h5.928C9.522 11 10 10.517 10 9.917V6.083c0-.6-.479-1.055-1.072-1.083H3.993zM12 5v1h1V5h-.01zm0 2v4h1V7z"/></g></svg>
